static/logos/gem-wordmark-color.svg

<svg width="100" height="29" viewBox="0 0 100 29" fill="none" xmlns="http://www.w3.org/2000/svg">
<g clip-path="url(#clip0_1_2698)">
<path fill-rule="evenodd" clip-rule="evenodd" d="M0 9.44882L9.44882 0H28.3465L37.7953 9.44882L28.3465 18.8976L18.8976 28.3465L0 9.44882ZM28.3465 18.8976L18.8976 9.44882L28.3465 0V18.8976Z" fill="#0D61FF"/>
<path d="M78.6406 23.6216H82.5136V15.3683C82.5136 13.4718 83.7154 12.5103 85.2112 12.5103C86.5734 12.5103 87.4014 13.3116 87.4014 15.1012V23.6216H91.2476V15.3683C91.2476 13.4718 92.4495 12.5103 93.9452 12.5103C95.3342 12.5103 96.1355 13.3116 96.1355 15.1012V23.6216H99.9817V14.6738C99.9817 10.9612 97.9784 9.33191 95.3876 9.33191C93.6247 9.33191 91.8085 10.0797 90.6867 11.7625C90.019 10.1064 88.63 9.33191 86.7871 9.33191C84.7037 9.33191 83.208 10.4803 82.5136 11.7891V9.65238H78.6406V23.6216Z" fill="#17181A"/>
<path d="M70.1042 23.9181C73.9238 23.9181 76.3276 22.2354 76.7817 19.2172H73.1225C72.8821 20.3923 72.0007 21.167 70.2112 21.167C68.1011 21.167 66.8457 19.8315 66.7389 17.5077H76.8084V16.4393C76.8084 11.4447 73.6033 9.33459 69.9974 9.33459C65.9376 9.33459 62.8125 12.1925 62.8125 16.5996V16.8133C62.8125 21.2738 65.8842 23.9181 70.1042 23.9181ZM66.7923 15.1305C67.0861 13.154 68.2613 12.0056 69.9974 12.0056C71.8405 12.0056 72.9088 13.0206 73.0424 15.1305H66.7923Z" fill="#17181A"/>
<path d="M52.2457 23.9173C57.9616 23.9173 61.2202 20.5252 61.2202 15.4236V13.3937H52.6464V16.5454H56.9467C56.8665 18.7357 55.5578 20.5786 52.3526 20.5786C48.6132 20.5786 47.0373 17.9344 47.0373 14.2484V14.0348C47.0373 10.1352 48.9872 7.6512 52.2992 7.6512C54.5963 7.6512 56.0653 8.66616 56.4392 10.9097H60.7394C60.2854 6.18217 56.4926 4.2323 52.2457 4.2323C46.6101 4.2323 42.5234 8.23873 42.5234 13.9814V14.195C42.5234 19.8575 45.9957 23.9173 52.2457 23.9173Z" fill="#17181A"/>
</g>
<defs>
<clipPath id="clip0_1_2698">
<rect width="100" height="28.3465" fill="white"/>
</clipPath>
</defs>
</svg>

<svg xmlns="http://www.w3.org/2000/svg" width="220.69" height="64" fill="none" viewBox="0 0 100 29"><g clip-path="url(#a)"><path fill="#0D61FF" fill-rule="evenodd" d="M0 9.449 9.449 0h18.898l9.448 9.449-9.449 9.449-9.448 9.448L0 9.45Zm28.346 9.449-9.448-9.45L28.346 0v18.898Z" clip-rule="evenodd"/><path fill="#17181A" d="M78.64 23.622h3.874v-8.254c0-1.896 1.201-2.858 2.697-2.858 1.362 0 2.19.802 2.19 2.591v8.52h3.847v-8.253c0-1.896 1.201-2.858 2.697-2.858 1.39 0 2.19.802 2.19 2.591v8.52h3.847v-8.947c0-3.713-2.004-5.342-4.594-5.342-1.763 0-3.58.748-4.701 2.43-.668-1.656-2.057-2.43-3.9-2.43-2.083 0-3.579 1.148-4.273 2.457V9.652H78.64v13.97ZM70.104 23.918c3.82 0 6.224-1.683 6.678-4.7h-3.66c-.24 1.174-1.121 1.949-2.91 1.949-2.11 0-3.366-1.336-3.473-3.66h10.07V16.44c0-4.994-3.206-7.104-6.812-7.104-4.06 0-7.184 2.857-7.184 7.265v.213c0 4.46 3.071 7.105 7.291 7.105Zm-3.312-8.787c.294-1.977 1.47-3.125 3.205-3.125 1.844 0 2.912 1.015 3.045 3.124h-6.25ZM52.246 23.917c5.716 0 8.974-3.392 8.974-8.493v-2.03h-8.574v3.151h4.3c-.08 2.19-1.388 4.034-4.593 4.034-3.74 0-5.316-2.645-5.316-6.33v-.214c0-3.9 1.95-6.384 5.262-6.384 2.297 0 3.766 1.015 4.14 3.259h4.3c-.454-4.728-4.246-6.678-8.493-6.678-5.636 0-9.723 4.007-9.723 9.75v.213c0 5.663 3.473 9.722 9.723 9.722Z"/></g><defs><clipPath id="a"><path fill="#fff" d="M0 0h100v28.346H0z"/></clipPath></defs></svg>
